X:1
T:Olean, 88.88.88
T:Olean, 88.88.88
T:Sabbath Tune & Hymn Book, 1859
T:Public Domain Courtesy of the Cyber Hymnal™
C:Sabbath Tune & Hymn Book, 1859
Z:Public Domain
Z:Courtesy of the Cyber Hymnal™
%%score ( 1 2 ) ( 3 4 )
L:1/8
Q:1/2=104
M:6/4
K:A
V:1 treble 
V:2 treble 
V:3 bass 
V:4 bass 
V:1
 [CE]6 | [CA]4 [CA]2 [CA]4 [CE]2 | [DF]4 [DF]2 [DF]4 [DF]2 | [FB]4 [FB]2 [FB]4 [EG]2 | %4
 [EA]6 [^DF]6 | E6 [CE]6 | [CA]4 [CA]2 [CA]4 [CE]2 | [DF]4 [DF]2 [DF]4 [DF]2 | %8
 [FB]4 [FB]2 [FB]4 [EG]2 | [EA]6 [^DF]6 | E6 [EB]6 | [Ec]4 [Ec]2 [Ee]4 [Ec]2 | %12
 [EB]4 [EB]2 [Ed]4 [EB]2 | [Ec]4 [EA]2 (F3 G) [EA]2 | [FB]6 [EG]6 | [EA]6 |] %16
V:2
 x6 | x12 | x12 | x12 | x12 | E6 x6 | x12 | x12 | x12 | x12 | E6 x6 | x12 | x12 | x6 D4 x2 | x12 | %15
 x6 |] %16
V:3
 [A,,A,]6 | [A,,A,]4 [A,,E,]2 [A,,E,]4 [A,,A,]2 | [D,A,]4 [D,A,]2 [D,A,]4 [D,A,]2 | %3
 [B,,D]4 [B,,D]2 [B,,D]4 [E,B,]2 | [A,,C]6 [B,,B,]6 | [E,G,]6 [A,,A,]6 | %6
 [A,,A,]4 [A,,E,]2 [A,,E,]4 [A,,A,]2 | [D,A,]4 [D,A,]2 [D,A,]4 [D,A,]2 | %8
 [B,,D]4 [B,,D]2 [B,,D]4 [E,B,]2 | [A,,C]6 [B,,B,]6 | [E,G,]6 [E,G,]6 | A,4 A,2 [A,C]4 [A,,A,]2 | %12
 [E,G,]4 [E,G,]2 [E,B,]4 [E,G,]2 | A,4 [C,A,]2 (A,3 B,) [C,C]2 | [B,,D]6 [E,B,]6 | [A,,C]6 |] %16
V:4
 x6 | x12 | x12 | x12 | x12 | x12 | x12 | x12 | x12 | x12 | x12 | A,4 A,2 x6 | x12 | A,4 D,4 x4 | %14
 x12 | x6 |] %16

